Sources/FrostedUI/Resources/Icons.xcassets/ethereum20.imageset/ethereum-20.svg

<svg width="20" height="20" viewBox="0 0 20 20" fill="none" xmlns="http://www.w3.org/2000/svg" data-fui-icon="true">
  <path
    d="M15.6483 10.4756C15.9573 10.309 16.341 10.3793 16.5712 10.6445C16.8012 10.9099 16.816 11.2996 16.6073 11.582L10.6034 19.6963C10.462 19.8872 10.2374 19.9999 9.99988 20C9.76237 19.9998 9.53868 19.8872 9.39734 19.6963L3.39343 11.582C3.18443 11.2996 3.19938 10.91 3.42957 10.6445C3.65981 10.3794 4.04345 10.3088 4.35242 10.4756L9.99988 13.5283L15.6483 10.4756ZM10.3573 15.041C10.1348 15.1613 9.86594 15.1612 9.64343 15.041L6.60242 13.3965L9.99988 17.9883L13.3973 13.3965L10.3573 15.041ZM9.99988 0C10.2323 0.000105439 10.4527 0.108847 10.5946 0.292969L16.5985 8.08203C16.7359 8.26049 16.7866 8.49166 16.7352 8.71094C16.69 8.90303 16.571 9.06942 16.4061 9.17383L16.3329 9.21387L10.328 12.1357C10.1213 12.2361 9.87948 12.236 9.67273 12.1357L3.66785 9.21387L3.5946 9.17383C3.42973 9.06946 3.31072 8.903 3.2655 8.71094C3.21412 8.49152 3.26466 8.26054 3.40222 8.08203L9.40613 0.292969C9.54803 0.108884 9.76747 0.000148028 9.99988 0ZM5.15222 8.26855L9.99988 10.627L14.8475 8.26855L9.99988 1.97949L5.15222 8.26855Z"
    fill="currentColor"
  />
</svg>

<svg xmlns="http://www.w3.org/2000/svg" width="20" height="20" fill="none" data-fui-icon="true" viewBox="0 0 20 20"><path fill="currentColor" d="M15.648 10.476a.75.75 0 0 1 .96 1.106l-6.005 8.114a.752.752 0 0 1-1.206 0l-6.004-8.114a.75.75 0 0 1 .96-1.106L10 13.528zm-5.29 4.565a.75.75 0 0 1-.715 0l-3.04-1.645L10 17.989l3.397-4.591zM10 0c.232 0 .453.109.595.293l6.004 7.789a.75.75 0 0 1-.193 1.092l-.073.04-6.005 2.922a.75.75 0 0 1-.655 0L3.668 9.214l-.073-.04a.753.753 0 0 1-.193-1.092L9.406.293A.75.75 0 0 1 10 0M5.152 8.269 10 10.627l4.848-2.358L10 1.979z"/></svg>
